src/assets/outline/Calculator.svg

<svg width="24" height="24" viewBox="0 0 24 24"  xmlns="http://www.w3.org/2000/svg">
<path d="M14 22.75H10C4.57 22.75 2.25 20.43 2.25 15V9C2.25 3.57 4.57 1.25 10 1.25H14C19.43 1.25 21.75 3.57 21.75 9V15C21.75 20.43 19.43 22.75 14 22.75ZM10 2.75C5.39 2.75 3.75 4.39 3.75 9V15C3.75 19.61 5.39 21.25 10 21.25H14C18.61 21.25 20.25 19.61 20.25 15V9C20.25 4.39 18.61 2.75 14 2.75H10Z" />
<path d="M15 10.8301H9C7.76 10.8301 6.75 9.82008 6.75 8.58008V7.58008C6.75 6.34008 7.76 5.33008 9 5.33008H15C16.24 5.33008 17.25 6.34008 17.25 7.58008V8.58008C17.25 9.82008 16.24 10.8301 15 10.8301ZM9 6.83008C8.59 6.83008 8.25 7.17008 8.25 7.58008V8.58008C8.25 8.99008 8.59 9.33008 9 9.33008H15C15.41 9.33008 15.75 8.99008 15.75 8.58008V7.58008C15.75 7.17008 15.41 6.83008 15 6.83008H9Z" />
<path d="M8.15016 14.9198C8.02016 14.9198 7.89016 14.8898 7.77016 14.8398C7.65016 14.7898 7.54016 14.7198 7.45016 14.6298C7.26016 14.4398 7.16016 14.1898 7.16016 13.9198C7.16016 13.7898 7.18016 13.6598 7.23016 13.5398C7.28016 13.4098 7.35016 13.3098 7.45016 13.2098C7.49016 13.1698 7.54016 13.1198 7.60016 13.0898C7.65016 13.0498 7.71016 13.0198 7.77016 12.9998C7.83016 12.9698 7.90016 12.9498 7.96016 12.9398C8.28016 12.8698 8.63016 12.9798 8.86016 13.2098C8.95016 13.2998 9.03016 13.4098 9.08016 13.5398C9.13016 13.6598 9.16016 13.7898 9.16016 13.9198C9.16016 14.1898 9.05016 14.4398 8.86016 14.6298C8.67016 14.8198 8.42016 14.9198 8.15016 14.9198Z" />
<path d="M12.1602 14.9199C11.8902 14.9199 11.6402 14.8199 11.4502 14.6299C11.2602 14.4399 11.1602 14.1899 11.1602 13.9199C11.1602 13.7899 11.1802 13.6599 11.2302 13.5399C11.2802 13.4099 11.3502 13.3099 11.4502 13.2099C11.4902 13.1699 11.5402 13.1199 11.6002 13.0899C11.6502 13.0499 11.7102 13.0199 11.7702 12.9999C11.8302 12.9699 11.9002 12.9499 11.9602 12.9399C12.1502 12.8999 12.3502 12.9199 12.5402 12.9999C12.6602 13.0499 12.7702 13.1199 12.8602 13.2099C12.9502 13.3099 13.0302 13.4099 13.0802 13.5399C13.1302 13.6599 13.1602 13.7899 13.1602 13.9199C13.1602 14.1899 13.0502 14.4399 12.8602 14.6299C12.6702 14.8199 12.4202 14.9199 12.1602 14.9199Z" />
<path d="M16.1502 14.9201C16.0202 14.9201 15.8902 14.8901 15.7702 14.8401C15.6502 14.7901 15.5402 14.7201 15.4502 14.6301C15.3502 14.5301 15.2802 14.4201 15.2302 14.3001C15.1802 14.1801 15.1602 14.0501 15.1602 13.9201C15.1602 13.7901 15.1802 13.6601 15.2302 13.5401C15.2802 13.4101 15.3502 13.3101 15.4502 13.2101C15.8202 12.8401 16.4902 12.8401 16.8602 13.2101C17.0502 13.4001 17.1602 13.6601 17.1602 13.9201C17.1602 14.1901 17.0502 14.4401 16.8602 14.6301C16.6802 14.8101 16.4302 14.9201 16.1502 14.9201Z" />
<path d="M8.1599 18.9199C7.8899 18.9199 7.6399 18.8199 7.4499 18.6299C7.2599 18.4399 7.1499 18.1899 7.1499 17.9199C7.1499 17.6599 7.2599 17.3999 7.4499 17.2099C7.4899 17.1699 7.5499 17.1199 7.5999 17.0899C7.6499 17.0499 7.7099 17.0199 7.7699 16.9999C7.8299 16.9699 7.8999 16.9499 7.9599 16.9399C8.2899 16.8799 8.6299 16.9799 8.8599 17.2099C8.9099 17.2599 8.9499 17.3099 8.9899 17.3599C9.0199 17.4199 9.0499 17.4799 9.0799 17.5399C9.0999 17.5999 9.1199 17.6599 9.1399 17.7199C9.1499 17.7899 9.1599 17.8499 9.1599 17.9199C9.1599 18.1899 9.0499 18.4399 8.8599 18.6299C8.6699 18.8199 8.4199 18.9199 8.1599 18.9199Z" />
<path d="M12.1599 18.9199C11.8899 18.9199 11.6399 18.8199 11.4499 18.6299C11.2599 18.4399 11.1499 18.1899 11.1499 17.9199C11.1499 17.6599 11.2599 17.3999 11.4499 17.2099C11.6799 16.9799 12.0299 16.8799 12.3499 16.9399C12.4099 16.9499 12.4799 16.9699 12.5399 16.9999C12.5999 17.0199 12.6599 17.0499 12.7099 17.0899C12.7599 17.1199 12.8099 17.1699 12.8599 17.2099C13.0499 17.3999 13.1499 17.6599 13.1499 17.9199C13.1499 18.1899 13.0499 18.4399 12.8599 18.6299C12.6699 18.8199 12.4199 18.9199 12.1599 18.9199Z" />
<path d="M16.1502 18.9202C15.8902 18.9202 15.6402 18.8202 15.4502 18.6302C15.2602 18.4402 15.1602 18.1902 15.1602 17.9202C15.1602 17.6602 15.2602 17.4002 15.4502 17.2102C15.5402 17.1202 15.6502 17.0502 15.7702 17.0002C16.1402 16.8502 16.5902 16.9302 16.8602 17.2102C17.0502 17.4002 17.1502 17.6602 17.1502 17.9202C17.1502 18.1902 17.0502 18.4402 16.8602 18.6302C16.7702 18.7202 16.6602 18.7902 16.5402 18.8402C16.4202 18.8902 16.2902 18.9202 16.1502 18.9202Z" />
</svg>

<?xml version="1.0" encoding="UTF-8"?>
<svg width="24" height="24" viewBox="0 0 24 24" xmlns="http://www.w3.org/2000/svg">
 <path d="m14 22.75h-4c-5.43 0-7.75-2.32-7.75-7.75v-6c0-5.43 2.32-7.75 7.75-7.75h4c5.43 0 7.75 2.32 7.75 7.75v6c0 5.43-2.32 7.75-7.75 7.75zm-4-20c-4.61 0-6.25 1.64-6.25 6.25v6c0 4.61 1.64 6.25 6.25 6.25h4c4.61 0 6.25-1.64 6.25-6.25v-6c0-4.61-1.64-6.25-6.25-6.25h-4z"/>
 <path d="m15 10.83h-6c-1.24 0-2.25-1.01-2.25-2.25v-1c0-1.24 1.01-2.25 2.25-2.25h6c1.24 0 2.25 1.01 2.25 2.25v1c0 1.24-1.01 2.25-2.25 2.25zm-6-4c-0.41 0-0.75 0.34-0.75 0.75v1c0 0.41 0.34 0.75 0.75 0.75h6c0.41 0 0.75-0.34 0.75-0.75v-1c0-0.41-0.34-0.75-0.75-0.75h-6z"/>
 <path d="m8.1502 14.92c-0.13 0-0.26-0.03-0.38-0.08s-0.23-0.12-0.32-0.21c-0.19-0.19-0.29-0.44-0.29-0.71 0-0.13 0.02-0.26 0.07-0.38 0.05-0.13 0.12-0.23 0.22-0.33 0.04-0.04 0.09-0.09 0.15-0.12 0.05-0.04 0.11-0.07 0.17-0.09 0.06-0.03 0.13-0.05 0.19-0.06 0.32-0.07 0.67 0.04 0.9 0.27 0.09 0.09 0.17 0.2 0.22 0.33 0.05 0.12 0.08 0.25 0.08 0.38 0 0.27-0.11 0.52-0.3 0.71s-0.44 0.29-0.71 0.29z"/>
 <path d="m12.16 14.92c-0.27 0-0.52-0.1-0.71-0.29s-0.29-0.44-0.29-0.71c0-0.13 0.02-0.26 0.07-0.38 0.05-0.13 0.12-0.23 0.22-0.33 0.04-0.04 0.09-0.09 0.15-0.12 0.05-0.04 0.11-0.07 0.17-0.09 0.06-0.03 0.13-0.05 0.19-0.06 0.19-0.04 0.39-0.02 0.58 0.06 0.12 0.05 0.23 0.12 0.32 0.21 0.09 0.1 0.17 0.2 0.22 0.33 0.05 0.12 0.08 0.25 0.08 0.38 0 0.27-0.11 0.52-0.3 0.71s-0.44 0.29-0.7 0.29z"/>
 <path d="m16.15 14.92c-0.13 0-0.26-0.03-0.38-0.08s-0.23-0.12-0.32-0.21c-0.1-0.1-0.17-0.21-0.22-0.33s-0.07-0.25-0.07-0.38 0.02-0.26 0.07-0.38c0.05-0.13 0.12-0.23 0.22-0.33 0.37-0.37 1.04-0.37 1.41 0 0.19 0.19 0.3 0.45 0.3 0.71 0 0.27-0.11 0.52-0.3 0.71-0.18 0.18-0.43 0.29-0.71 0.29z"/>
 <path d="m8.1599 18.92c-0.27 0-0.52-0.1-0.71-0.29s-0.3-0.44-0.3-0.71c0-0.26 0.11-0.52 0.3-0.71 0.04-0.04 0.1-0.09 0.15-0.12 0.05-0.04 0.11-0.07 0.17-0.09 0.06-0.03 0.13-0.05 0.19-0.06 0.33-0.06 0.67 0.04 0.9 0.27 0.05 0.05 0.09 0.1 0.13 0.15l0.09 0.18 0.06 0.18c0.01 0.07 0.02 0.13 0.02 0.2 0 0.27-0.11 0.52-0.3 0.71s-0.44 0.29-0.7 0.29z"/>
 <path d="m12.16 18.92c-0.27 0-0.52-0.1-0.71-0.29s-0.3-0.44-0.3-0.71c0-0.26 0.11-0.52 0.3-0.71 0.23-0.23 0.58-0.33 0.9-0.27 0.06 0.01 0.13 0.03 0.19 0.06 0.06 0.02 0.12 0.05 0.17 0.09 0.05 0.03 0.1 0.08 0.15 0.12 0.19 0.19 0.29 0.45 0.29 0.71 0 0.27-0.1 0.52-0.29 0.71s-0.44 0.29-0.7 0.29z"/>
 <path d="m16.15 18.92c-0.26 0-0.51-0.1-0.7-0.29s-0.29-0.44-0.29-0.71c0-0.26 0.1-0.52 0.29-0.71 0.09-0.09 0.2-0.16 0.32-0.21 0.37-0.15 0.82-0.07 1.09 0.21 0.19 0.19 0.29 0.45 0.29 0.71 0 0.27-0.1 0.52-0.29 0.71-0.09 0.09-0.2 0.16-0.32 0.21s-0.25 0.08-0.39 0.08z"/>
</svg>
